app/assets/images/payment_icons/shib.svg

<svg width="38" height="24" viewBox="0 0 38 24" fill="none" xmlns="http://www.w3.org/2000/svg" role="img" aria-labelledby="pi-shib">
<rect width="38" height="24" fill="white"/>
<path opacity="0.07" d="M35 0H3C1.3 0 0 1.3 0 3V21C0 22.7 1.4 24 3 24H35C36.7 24 38 22.7 38 21V3C38 1.3 36.6 0 35 0Z" fill="black"/>
<path d="M35 1C36.1 1 37 1.9 37 3V21C37 22.1 36.1 23 35 23H3C1.9 23 1 22.1 1 21V3C1 1.9 1.9 1 3 1H35Z" fill="white"/>
<circle cx="19" cy="12" r="8" fill="#F00500"/>
<path d="M22.1216 12.5192C22.1163 12.5477 22.0326 12.6331 21.949 12.6953C21.7035 12.8751 21.264 13.0423 20.8174 13.1224C20.563 13.1686 20.3085 13.1757 20.232 13.1384C20.1822 13.1135 20.1751 13.0939 20.1929 13.0298C20.2302 12.8964 20.3512 12.7505 20.5398 12.6135C20.6359 12.5441 21.0256 12.3075 21.2071 12.2078C21.506 12.0441 21.748 11.9463 21.9117 11.9231C21.9633 11.916 22.0255 11.9142 22.0451 11.9231C22.0771 11.9356 22.1127 12.0299 22.1269 12.1438C22.1341 12.2043 22.1305 12.4712 22.1216 12.5192Z" fill="black"/>
<path d="M17.9296 13.1082C17.919 13.1295 17.8656 13.1526 17.8051 13.1615C17.7446 13.1704 17.5595 13.1651 17.4546 13.1526C17.0774 13.1028 16.677 12.9872 16.3852 12.8448C16.2215 12.7648 16.1041 12.6847 16.0169 12.5975L15.9671 12.5459L15.9618 12.4783C15.9529 12.3609 15.9546 12.1758 15.9689 12.11C15.9778 12.0548 15.9973 12.0014 16.024 11.9534C16.0383 11.9356 16.0383 11.9356 16.1023 11.9356C16.1806 11.9356 16.2464 11.9481 16.3532 11.9819C16.572 12.0495 16.8977 12.2132 17.2944 12.4516C17.6218 12.6473 17.7446 12.7434 17.8389 12.8751C17.9029 12.9569 17.9456 13.0726 17.9296 13.1082Z" fill="black"/>
<path d="M20.4491 15.5849C20.4491 15.5902 20.4277 15.6756 20.4011 15.7771C20.3744 15.8785 20.353 15.9603 20.353 15.9639C20.3334 15.9657 20.3156 15.9674 20.2961 15.9657H20.2391L20.1608 16.1507C20.1181 16.2521 20.079 16.3464 20.0737 16.3607L20.063 16.3856L20.0256 16.3251L19.9883 16.2646V15.7717L19.974 15.7753C19.9438 15.7824 19.7285 15.8109 19.6342 15.8198C19.2445 15.8589 18.8531 15.85 18.4652 15.7948C18.4029 15.7859 18.3495 15.7788 18.3478 15.7806C18.346 15.7824 18.3478 15.8963 18.3513 16.0368L18.3567 16.2895L18.3264 16.3357C18.3104 16.3607 18.2944 16.382 18.2944 16.3838C18.289 16.3891 18.2713 16.3607 18.2303 16.2788C18.1858 16.1934 18.1538 16.1027 18.1307 16.0084L18.1182 15.9568L18.0631 15.9603L18.0079 15.9657L17.9937 15.8998C17.9866 15.8642 17.9777 15.8091 17.9741 15.7788L17.9688 15.7219L17.9225 15.681C17.8958 15.6578 17.8691 15.6347 17.8638 15.6312C17.8549 15.624 17.8513 15.6116 17.8513 15.6009V15.5796L18.0738 15.5813L18.2962 15.5831L18.3033 15.6062L18.3104 15.6294L18.3869 15.6329C18.4296 15.6347 18.5648 15.6383 18.6858 15.6418L18.9082 15.6472L18.9652 15.5582L19.0239 15.4692H19.0986L19.0968 15.2842L19.0951 15.0992L18.9972 15.0564C18.6823 14.9177 18.4972 14.7593 18.4278 14.5671C18.4136 14.528 18.4136 14.5138 18.41 14.3358C18.4083 14.1597 18.4083 14.1437 18.4207 14.1045C18.4456 14.0156 18.515 13.9462 18.604 13.9231C18.6342 13.9142 18.7143 13.9142 19.1342 13.9142L19.6288 13.9159L19.684 13.9426C19.7498 13.9746 19.7801 13.9978 19.8174 14.0476C19.8602 14.1045 19.8726 14.149 19.8726 14.2576C19.8726 14.4124 19.8619 14.5458 19.8459 14.5992C19.8228 14.6721 19.7872 14.7415 19.7427 14.8038C19.6538 14.9177 19.4918 15.0315 19.3442 15.0831L19.3015 15.0992L19.3032 15.286L19.305 15.4728L19.3442 15.4764L19.3833 15.4799L19.4367 15.56L19.4883 15.64H19.7267C19.8584 15.64 19.974 15.6418 19.9847 15.6436C20.0025 15.6472 20.0061 15.6454 20.0238 15.6151L20.0452 15.5831H20.2498C20.4028 15.576 20.4491 15.5796 20.4491 15.5849Z" fill="black"/>
<path d="M19.5096 16.0955C19.4758 16.1151 19.4527 16.124 19.4474 16.1205C19.442 16.1187 19.4171 16.0973 19.3904 16.0778L19.3424 16.0386L19.2926 16.092C19.184 16.2094 19.1805 16.2148 19.1484 16.2165C19.0986 16.2219 19.0879 16.213 19.0274 16.1222C18.9954 16.076 18.9705 16.0368 18.9705 16.0368C18.9705 16.0368 18.9474 16.0333 18.9207 16.0315L18.8709 16.0262L18.8477 16.0742L18.8246 16.1222L18.7837 16.1098C18.7517 16.0991 18.7196 16.0866 18.6894 16.0724L18.636 16.0457V15.9443L19.1093 15.9461L19.5826 15.9479L19.5844 15.9959C19.5861 16.0528 19.5879 16.0511 19.5096 16.0955Z" fill="black"/>
<path d="M23.9578 13.9248C23.956 13.9177 23.956 13.9052 23.9543 13.8857C23.5272 13.8394 22.3084 13.8109 21.1768 14.7451C21.1768 14.7451 20.8121 13.0725 19.104 13.0725C17.3958 13.0725 16.7624 14.7451 16.7624 14.7451C15.8052 13.7149 14.5241 13.7896 14.0615 13.8572C14.0615 13.8679 14.0597 13.8803 14.0597 13.891C14.0455 14.149 14.0526 14.2718 14.0953 14.4337C14.2287 14.9408 14.6397 15.4995 15.2838 16.0475C16.339 16.9442 17.7695 17.5919 18.8531 17.6666C19.9829 17.7431 21.6501 17.083 22.7604 16.1187C22.9347 15.9639 23.0984 15.8002 23.2514 15.6258C23.3618 15.4977 23.5255 15.2771 23.513 15.2771C23.5094 15.2771 23.513 15.2735 23.5201 15.2699C23.5255 15.2664 23.5308 15.261 23.5272 15.2575C23.5255 15.2557 23.529 15.2504 23.5344 15.2486C23.5397 15.2468 23.5432 15.2433 23.5415 15.2397C23.5397 15.2361 23.5415 15.2326 23.5486 15.2308C23.5539 15.229 23.5557 15.2237 23.5539 15.2201C23.5521 15.2166 23.5539 15.213 23.5575 15.213C23.561 15.213 23.5646 15.2077 23.5646 15.2041C23.5646 15.2006 23.5682 15.1952 23.5717 15.1952C23.5753 15.1952 23.5788 15.1917 23.5788 15.1881C23.5842 15.1739 23.5931 15.1596 23.602 15.1472C23.6287 15.1063 23.7354 14.9159 23.7496 14.8838C23.8511 14.6543 23.9151 14.4497 23.9454 14.2451C23.956 14.1472 23.9649 13.9675 23.9578 13.9248ZM19.5096 16.0955C19.4758 16.1151 19.4527 16.124 19.4474 16.1204C19.442 16.1187 19.4171 16.0973 19.3904 16.0777L19.3424 16.0386L19.2926 16.092C19.184 16.2094 19.1805 16.2147 19.1484 16.2165C19.0986 16.2219 19.0879 16.213 19.0274 16.1222C18.9954 16.076 18.9705 16.0368 18.9705 16.0368C18.9705 16.0368 18.9474 16.0333 18.9207 16.0315L18.8709 16.0261L18.8477 16.0742L18.8246 16.1222L18.7837 16.1098C18.7517 16.0991 18.7196 16.0866 18.6894 16.0724L18.636 16.0457V15.9443L19.1093 15.9461L19.5826 15.9478L19.5844 15.9959C19.5861 16.0528 19.5879 16.051 19.5096 16.0955ZM20.3993 15.7753C20.3726 15.8767 20.3512 15.9585 20.3512 15.9621C20.3317 15.9639 20.3139 15.9656 20.2943 15.9639H20.2374L20.1608 16.1507C20.1181 16.2521 20.079 16.3464 20.0737 16.3606L20.063 16.3855L20.0256 16.3251L19.9883 16.2646V15.7717L19.974 15.7753C19.9438 15.7824 19.7285 15.8108 19.6342 15.8197C19.2445 15.8589 18.8531 15.85 18.4652 15.7948C18.4029 15.7859 18.3495 15.7788 18.3478 15.7806C18.346 15.7824 18.3478 15.8962 18.3513 16.0368L18.3567 16.2895L18.3264 16.3357C18.3104 16.3606 18.2944 16.382 18.2944 16.3838C18.289 16.3891 18.2713 16.3606 18.2303 16.2788C18.1858 16.1934 18.1538 16.1026 18.1307 16.0083L18.1182 15.9567L18.0631 15.9603L18.0079 15.9656L17.9937 15.8998C17.9866 15.8642 17.9777 15.8091 17.9741 15.7788L17.9688 15.7219L17.9225 15.681C17.8958 15.6578 17.8691 15.6347 17.8638 15.6311C17.8549 15.624 17.8513 15.6116 17.8513 15.6009V15.5795L18.0737 15.5813L18.2962 15.5831L18.3033 15.6062L18.3104 15.6294L18.3869 15.6329C18.4296 15.6347 18.5648 15.6383 18.6858 15.6418L18.9082 15.6472L18.9652 15.5582L19.0239 15.4692H19.0986L19.0968 15.2842L19.0951 15.0991L18.9972 15.0564C18.6823 14.9176 18.4972 14.7593 18.4278 14.5671C18.4136 14.528 18.4136 14.5138 18.41 14.3358C18.4083 14.1597 18.4083 14.1437 18.4207 14.1045C18.4456 14.0156 18.515 13.9462 18.604 13.923C18.6342 13.9141 18.7143 13.9141 19.1342 13.9141L19.6288 13.9159L19.684 13.9426C19.7498 13.9746 19.7801 13.9978 19.8174 14.0476C19.8601 14.1045 19.8726 14.149 19.8726 14.2575C19.8726 14.4123 19.8619 14.5458 19.8459 14.5992C19.8228 14.6721 19.7872 14.7415 19.7427 14.8038C19.6537 14.9176 19.4918 15.0315 19.3442 15.0831L19.3015 15.0991L19.3032 15.286L19.305 15.4728L19.3442 15.4763L19.3833 15.4799L19.4367 15.56L19.4883 15.64H19.7267C19.8584 15.64 19.974 15.6418 19.9847 15.6436C20.0025 15.6472 20.006 15.6454 20.0238 15.6151L20.0452 15.5831H20.2498C20.4082 15.5831 20.4544 15.5849 20.4544 15.5902C20.4491 15.5884 20.426 15.6756 20.3993 15.7753Z" fill="white"/>
<path d="M23.9436 13.7433C23.94 13.6633 23.9329 13.5512 23.9276 13.496C23.8511 12.6882 23.6447 12.0281 23.2532 11.3289C23.2372 11.3022 23.223 11.2755 23.2141 11.2541C23.2105 11.2488 23.2087 11.2435 23.207 11.2399C23.2621 11.0744 23.4881 10.3823 23.6678 9.59051C23.9116 8.51583 24.0664 7.25966 23.5931 6.88245C23.5931 6.88245 22.7746 6.82195 21.6786 7.89664C21.3814 8.19378 21.1092 8.51583 20.8672 8.85923L20.7907 8.83432C20.3494 8.6902 19.8922 8.60123 19.4313 8.57099C19.2926 8.56031 18.7748 8.56031 18.6058 8.57099C18.0951 8.60479 17.7037 8.6813 17.2588 8.8361C17.241 8.84321 17.225 8.84855 17.209 8.85389C16.9581 8.51227 16.6788 8.192 16.371 7.89842C15.2305 6.8184 14.3818 6.88067 14.3818 6.88067C13.88 7.27033 14.0508 8.58344 14.3106 9.69371C14.4814 10.4286 14.6913 11.0744 14.7696 11.3075C14.7643 11.32 14.7572 11.3342 14.7501 11.3467C14.3355 12.1865 14.1113 12.9961 14.0579 13.8572C14.5223 13.7896 15.8016 13.7131 16.7606 14.7451C16.7606 14.7451 17.3941 13.0726 19.1022 13.0726C20.8103 13.0726 21.175 14.7451 21.175 14.7451C22.3067 13.811 23.5255 13.8412 23.9525 13.8857C23.9507 13.8501 23.9471 13.7967 23.9436 13.7433ZM15.1059 10.6367C15.1059 10.6367 14.4405 8.9731 14.6113 8.02297C14.6397 7.86283 14.6931 7.72227 14.7768 7.61551C14.7768 7.61551 15.5312 7.69024 16.7482 9.04249C16.7482 9.04249 16.5169 9.15459 16.2073 9.39301C16.2073 9.39301 16.2055 9.39479 16.2037 9.39479C15.8674 9.65279 15.4369 10.062 15.1059 10.6367ZM17.9296 13.1081C17.919 13.1295 17.8656 13.1526 17.8051 13.1615C17.7446 13.1704 17.5595 13.1651 17.4546 13.1526C17.0774 13.1028 16.677 12.9872 16.3852 12.8448C16.2215 12.7647 16.1041 12.6847 16.0169 12.5975L15.9671 12.5459L15.9617 12.4783C15.9529 12.3608 15.9546 12.1758 15.9689 12.11C15.9778 12.0548 15.9973 12.0014 16.024 11.9534C16.0383 11.9356 16.0383 11.9356 16.1023 11.9356C16.1806 11.9356 16.2464 11.9481 16.3532 11.9819C16.572 12.0495 16.8976 12.2132 17.2944 12.4516C17.6218 12.6473 17.7446 12.7434 17.8389 12.8751C17.9029 12.9569 17.9456 13.0726 17.9296 13.1081ZM22.1216 12.5192C22.1163 12.5477 22.0326 12.6331 21.949 12.6954C21.7035 12.8751 21.264 13.0423 20.8174 13.1224C20.563 13.1686 20.3085 13.1758 20.232 13.1384C20.1822 13.1135 20.1751 13.0939 20.1929 13.0299C20.2302 12.8964 20.3512 12.7505 20.5398 12.6135C20.6359 12.5441 21.0256 12.3075 21.2071 12.2078C21.506 12.0441 21.748 11.9463 21.9117 11.9231C21.9633 11.916 22.0255 11.9143 22.0451 11.9231C22.0771 11.9356 22.1127 12.0299 22.1269 12.1438C22.1341 12.2043 22.1305 12.4712 22.1216 12.5192ZM21.8262 9.39301L21.8227 9.39123C21.5238 9.15281 21.2996 9.04071 21.2996 9.04071C22.4757 7.68846 23.2034 7.61373 23.2034 7.61373C23.2835 7.72227 23.3351 7.86105 23.3635 8.02119C23.529 8.97132 22.8867 10.6367 22.8867 10.6367C22.618 10.1581 22.2568 9.73463 21.8262 9.39301Z" fill="#FFA409"/>
<path d="M23.3653 8.02119C23.2265 8.0034 22.57 7.99984 21.8262 9.39302L21.8227 9.39124C21.5238 9.15281 21.2996 9.04072 21.2996 9.04072C22.4757 7.68847 23.2034 7.61374 23.2034 7.61374C23.2852 7.72227 23.3368 7.86106 23.3653 8.02119Z" fill="#FF9300"/>
<path d="M22.8885 10.6367C22.618 10.1563 22.2586 9.73465 21.8262 9.39303C22.57 7.99985 23.2248 8.00341 23.3653 8.0212C23.5308 8.97312 22.8885 10.6367 22.8885 10.6367Z" fill="#FF8300"/>
<path d="M23.392 8.02652C23.3831 8.02474 23.3742 8.02296 23.3653 8.02118L23.392 8.02652Z" fill="#FF8300"/>
<path d="M16.7482 9.04072C16.7482 9.04072 16.5169 9.15281 16.2073 9.39124C16.2073 9.39124 16.2055 9.39302 16.2037 9.39302C15.4333 7.99806 14.7554 8.0034 14.6095 8.02119C14.638 7.86106 14.6913 7.7205 14.775 7.61374C14.7767 7.61374 15.5312 7.68847 16.7482 9.04072Z" fill="#FF9300"/>
<path d="M16.2055 9.39303C15.8675 9.6528 15.4369 10.0603 15.1059 10.6367C15.1059 10.6367 14.4405 8.97312 14.6113 8.0212C14.7554 8.00341 15.4351 7.99985 16.2055 9.39303Z" fill="#FF8300"/>
<path d="M14.6113 8.02118C14.6024 8.02296 14.5917 8.02474 14.5828 8.02652L14.6113 8.02118Z" fill="#FF8300"/>
<path d="M21.0878 11.5602C21.0878 11.5602 20.5185 11.5957 20.5897 11.1509C20.6608 10.7061 21.1056 10.6527 21.2302 10.6705C21.3547 10.6883 21.8529 10.8662 21.764 11.2399C21.675 11.6135 21.5505 11.5424 21.4793 11.5602C21.4081 11.5779 21.0878 11.5602 21.0878 11.5602Z" fill="white"/>
<path d="M16.8887 11.5602C16.8887 11.5602 16.3194 11.5957 16.3905 11.1509C16.4617 10.7061 16.9065 10.6527 17.0311 10.6705C17.1556 10.6883 17.6538 10.8662 17.5649 11.2399C17.4759 11.6135 17.3514 11.5424 17.2802 11.5602C17.209 11.5779 16.8887 11.5602 16.8887 11.5602Z" fill="white"/>
</svg>

<svg width="38" height="24" fill="none" xmlns="http://www.w3.org/2000/svg" aria-labelledby="pi-shib"><path fill="#fff" d="M0 0h38v24H0z"/><path opacity=".07" d="M35 0H3C1.3 0 0 1.3 0 3v18c0 1.7 1.4 3 3 3h32c1.7 0 3-1.3 3-3V3c0-1.7-1.4-3-3-3Z" fill="#000"/><path d="M35 1c1.1 0 2 .9 2 2v18c0 1.1-.9 2-2 2H3c-1.1 0-2-.9-2-2V3c0-1.1.9-2 2-2h32Z" fill="#fff"/><circle cx="19" cy="12" r="8" fill="#F00500"/><path d="M22.122 12.52c-.006.028-.09.113-.173.175-.246.18-.685.347-1.132.427-.254.047-.509.054-.585.016-.05-.024-.057-.044-.04-.108.038-.134.16-.28.348-.416.096-.07.486-.307.667-.406.299-.164.541-.262.705-.285a.362.362 0 0 1 .133 0c.032.013.068.107.082.22.007.061.004.328-.005.376ZM17.93 13.108c-.011.021-.064.045-.125.053-.06.01-.245.004-.35-.008a3.682 3.682 0 0 1-1.07-.308 1.345 1.345 0 0 1-.368-.248l-.05-.051-.005-.068a1.854 1.854 0 0 1 .007-.368.483.483 0 0 1 .055-.157c.014-.017.014-.017.078-.017a.77.77 0 0 1 .251.046c.219.068.545.231.941.47.328.195.45.291.545.423.064.082.107.198.09.233ZM20.45 15.585c0 .005-.022.09-.049.192a7.131 7.131 0 0 0-.048.187c-.02.002-.037.003-.057.002h-.057l-.078.185c-.043.101-.082.195-.087.21l-.011.025-.037-.06-.038-.061v-.493l-.014.003a4.85 4.85 0 0 1-1.509.02 1.182 1.182 0 0 0-.117-.014c-.002.001 0 .115.003.256l.006.253-.03.046c-.017.025-.033.046-.033.048-.005.005-.023-.023-.064-.105a1.2 1.2 0 0 1-.1-.27l-.012-.052-.055.003-.055.006-.014-.066a1.919 1.919 0 0 1-.02-.121l-.005-.057-.047-.041a1.543 1.543 0 0 0-.058-.05c-.01-.007-.013-.02-.013-.03v-.021l.223.001.222.002.007.023.007.023.077.004.299.009.222.005.057-.089.059-.089h.075l-.002-.185-.002-.185-.098-.043c-.315-.138-.5-.297-.57-.489-.013-.039-.013-.053-.017-.231-.002-.176-.002-.192.01-.232a.259.259 0 0 1 .184-.18c.03-.01.11-.01.53-.01l.495.002.055.027a.31.31 0 0 1 .133.105c.043.056.056.101.056.21 0 .154-.011.288-.027.341a.737.737 0 0 1-.103.205.947.947 0 0 1-.399.28l-.043.015.002.187.002.187.04.003.038.004.054.08.051.08h.239c.131 0 .247.002.258.004.018.003.021.001.039-.029l.021-.032h.205c.153-.007.2-.003.2.002Z" fill="#000"/><path d="M19.51 16.096c-.034.02-.057.028-.063.024-.005-.001-.03-.023-.057-.042l-.048-.04-.05.054c-.108.117-.112.123-.144.125-.05.005-.06-.004-.12-.095-.033-.046-.057-.085-.057-.085s-.024-.004-.05-.005l-.05-.006-.023.048-.023.048-.041-.012a.876.876 0 0 1-.095-.038l-.053-.026v-.102l.473.002.474.002.001.048c.002.057.004.055-.074.1Z" fill="#000"/><path d="M23.958 13.925c-.002-.007-.002-.02-.004-.04a3.783 3.783 0 0 0-2.777.86s-.365-1.672-2.073-1.672-2.342 1.672-2.342 1.672c-.957-1.03-2.238-.955-2.7-.888l-.002.034c-.014.258-.007.38.035.543.134.507.545 1.066 1.189 1.614 1.055.896 2.486 1.544 3.57 1.619 1.129.076 2.796-.584 3.906-1.548.175-.155.338-.319.491-.493.11-.128.274-.349.262-.349-.004 0 0-.003.007-.007.006-.004.01-.009.007-.012-.002-.002.002-.008.007-.01.006-.001.01-.005.008-.008-.002-.004 0-.007.007-.01.005-.001.007-.006.005-.01-.002-.003 0-.007.004-.007.003 0 .007-.005.007-.009 0-.003.003-.009.007-.009a.008.008 0 0 0 .007-.007 4.598 4.598 0 0 0 .17-.304c.102-.23.166-.434.196-.639.011-.098.02-.277.013-.32Zm-4.448 2.17c-.034.02-.057.029-.063.025-.005-.001-.03-.023-.057-.042l-.048-.04-.05.054c-.108.117-.112.123-.144.125-.05.005-.06-.004-.12-.095-.033-.046-.057-.085-.057-.085s-.024-.004-.05-.005l-.05-.006-.023.048-.023.048-.041-.012a.876.876 0 0 1-.095-.038l-.053-.026v-.102l.473.002.474.002.001.048c.002.057.004.055-.074.1Zm.89-.32a7.131 7.131 0 0 0-.049.187c-.02.002-.037.004-.057.002h-.057l-.076.187a13.83 13.83 0 0 0-.087.21l-.011.024-.037-.06-.038-.06v-.493l-.014.003a4.844 4.844 0 0 1-1.509.02 1.182 1.182 0 0 0-.117-.014c-.002.001 0 .115.003.256l.006.253-.03.046c-.017.025-.033.046-.033.048-.005.005-.023-.023-.064-.105a1.2 1.2 0 0 1-.1-.27l-.012-.052-.055.003-.055.006-.014-.066a1.919 1.919 0 0 1-.02-.121l-.005-.057-.047-.041a1.697 1.697 0 0 0-.058-.05c-.01-.007-.013-.02-.013-.03v-.022l.223.002.222.002.007.023.007.023.077.004.299.009.222.005.057-.089.059-.089h.075l-.002-.185-.002-.185-.098-.043c-.315-.138-.5-.297-.57-.489-.013-.039-.013-.053-.017-.231-.002-.176-.002-.192.01-.232a.259.259 0 0 1 .184-.181c.03-.009.11-.009.53-.009l.495.002.055.027a.31.31 0 0 1 .133.105c.043.056.056.101.056.21 0 .154-.011.288-.027.341a.737.737 0 0 1-.103.205.949.949 0 0 1-.399.28l-.043.015.002.187.002.187.04.003.038.004.054.08.051.08h.239c.131 0 .247.002.258.004.018.003.021.001.039-.029l.021-.032h.205c.158 0 .204.002.204.007-.005-.002-.028.086-.055.185Z" fill="#fff"/><path d="M23.944 13.743a5.218 5.218 0 0 0-.69-2.414.616.616 0 0 1-.04-.075l-.007-.014c.055-.166.281-.858.46-1.65.245-1.074.4-2.33-.074-2.708 0 0-.818-.06-1.914 1.015a7.35 7.35 0 0 0-.812.962l-.076-.025a5.554 5.554 0 0 0-1.36-.263 10.63 10.63 0 0 0-.825 0 4.802 4.802 0 0 0-1.397.283 7.245 7.245 0 0 0-.838-.956c-1.14-1.08-1.99-1.017-1.99-1.017-.501.39-.33 1.702-.07 2.813.17.735.38 1.38.459 1.613a.397.397 0 0 1-.02.04c-.415.84-.639 1.65-.692 2.51.464-.067 1.744-.144 2.703.888 0 0 .633-1.672 2.341-1.672 1.708 0 2.073 1.672 2.073 1.672a3.792 3.792 0 0 1 2.777-.86l-.008-.142Zm-8.838-3.106s-.665-1.664-.495-2.614c.029-.16.082-.3.166-.407 0 0 .754.074 1.971 1.426 0 0-.231.113-.54.351l-.004.002a4.278 4.278 0 0 0-1.098 1.242Zm2.824 2.471c-.011.021-.064.045-.125.053-.06.01-.245.004-.35-.008a3.682 3.682 0 0 1-1.07-.308 1.347 1.347 0 0 1-.368-.248l-.05-.051-.005-.068a1.86 1.86 0 0 1 .007-.368.483.483 0 0 1 .055-.157c.014-.017.014-.017.078-.017a.77.77 0 0 1 .251.046c.219.068.545.231.941.47.328.195.45.291.545.423.064.082.107.198.09.233Zm4.192-.589c-.006.029-.09.114-.173.176-.246.18-.685.347-1.132.427-.254.047-.509.054-.585.016-.05-.024-.057-.044-.04-.108.038-.134.16-.28.348-.416.096-.07.486-.307.667-.406.299-.164.541-.262.705-.285a.364.364 0 0 1 .133 0c.032.013.068.107.082.22.007.061.004.328-.005.376Zm-.296-3.126-.003-.002c-.3-.238-.523-.35-.523-.35 1.176-1.353 1.903-1.427 1.903-1.427.08.108.132.247.16.407.166.95-.476 2.616-.476 2.616a4.239 4.239 0 0 0-1.06-1.244Z" fill="#FFA409"/><path d="M23.365 8.021c-.138-.018-.795-.021-1.539 1.372l-.003-.002c-.3-.238-.523-.35-.523-.35 1.176-1.353 1.903-1.427 1.903-1.427a.945.945 0 0 1 .162.407Z" fill="#FF9300"/><path d="M22.889 10.637c-.271-.48-.63-.902-1.063-1.244.744-1.393 1.399-1.39 1.54-1.372.165.952-.477 2.616-.477 2.616ZM23.392 8.027l-.027-.006.027.006Z" fill="#FF8300"/><path d="M16.748 9.04s-.231.113-.54.351l-.004.002c-.77-1.395-1.449-1.39-1.595-1.372.029-.16.082-.3.166-.407.002 0 .756.074 1.973 1.427Z" fill="#FF9300"/><path d="M16.206 9.393c-.338.26-.77.667-1.1 1.244 0 0-.665-1.664-.495-2.616.144-.018.824-.021 1.595 1.372ZM14.611 8.021l-.028.006.028-.006Z" fill="#FF8300"/><path d="M21.088 11.56s-.57.036-.498-.41c.07-.444.516-.497.64-.48.125.018.623.196.534.57-.089.373-.213.302-.285.32-.07.018-.391 0-.391 0ZM16.889 11.56s-.57.036-.498-.41c.07-.444.516-.497.64-.48.125.018.623.196.534.57-.09.373-.214.302-.285.32-.071.018-.391 0-.391 0Z" fill="#fff"/></svg>
